X: 305629
M: 2/4
L: 1/16
K: Eb
e3B g3e | b4 bagf | e2e2 fe=de | f3=d B2B2 |\
e3B g3B | b4 bagf | e3e f3=d | e2e2e2 H|]
e2 |\
f4 a4 | agfg e2e2 | =d2e2f2g2 | f4 z2B2 |\
f4 a4 | c'8 | c'bba aggf | f4 "^D.C."e2 |]
e2 |\
eBgf eBge | fBag fBaf | g2g2 agfe | b6 B2 |\
edgf eBge | fBag fBaf | g2g2 f[ge]fg | (f4 "^D.C."e2) |]


